tools/download-figma-icons/icons/outlined-medium/training.svg

<svg width="24" height="24" viewBox="0 0 24 24" fill="none" xmlns="http://www.w3.org/2000/svg">
<path fill-rule="evenodd" clip-rule="evenodd" d="M18 16.5313C18 17.5805 15.5363 18.7498 12 18.7498C8.46375 18.7498 6 17.5805 6 16.5313V13.0273L11.6827 15.6793C11.7832 15.7265 11.8912 15.7498 12 15.7498C12.1088 15.7498 12.2168 15.7265 12.3173 15.6793L18 13.0273V16.5313ZM12 5.32784L21.477 9.74984L12 14.1718L2.52298 9.74984L12 5.32784ZM23.5672 9.07031L12.3173 3.82031C12.1163 3.72656 11.8837 3.72656 11.6827 3.82031L0.43275 9.07031C0.16875 9.19331 0 9.45806 0 9.74981C0 10.0416 0.16875 10.3063 0.43275 10.4293L4.5 12.3276V16.5313C4.5 18.9726 8.2725 20.2498 12 20.2498C15.7275 20.2498 19.5 18.9726 19.5 16.5313V12.3276L21 11.6278V16.4998C21 16.9146 21.3353 17.2498 21.75 17.2498C22.1647 17.2498 22.5 16.9146 22.5 16.4998V10.9273L23.5672 10.4293C23.8313 10.3063 24 10.0416 24 9.74981C24 9.45806 23.8313 9.19331 23.5672 9.07031Z" fill="black"/>
</svg>

<svg xmlns="http://www.w3.org/2000/svg" width="24" height="24" fill="none" viewBox="0 0 24 24"><path fill="currentColor" fill-rule="evenodd" d="M18 16.531c0 1.05-2.464 2.219-6 2.219s-6-1.17-6-2.219v-3.504l5.683 2.652a.75.75 0 0 0 .634 0L18 13.027zM12 5.328l9.477 4.422L12 14.172 2.523 9.75zM23.567 9.07l-11.25-5.25a.75.75 0 0 0-.634 0L.433 9.07a.75.75 0 0 0 0 1.36L4.5 12.327v4.203c0 2.442 3.773 3.719 7.5 3.719s7.5-1.277 7.5-3.719v-4.203l1.5-.7V16.5a.75.75 0 1 0 1.5 0v-5.573l1.067-.498a.749.749 0 0 0 0-1.359" clip-rule="evenodd"/></svg>
